icon-svg/rooms-closet.svg

<svg xmlns="http://www.w3.org/2000/svg" fill="#44739e" viewBox="0 0 24 24"><path d="M24 9h-4c-.553 0-1-.447-1-1s.447-1 1-1h4c.553 0 1 .447 1 1s-.447 1-1 1m0 6h-4c-.553 0-1-.447-1-1s.447-1 1-1h4c.553 0 1 .447 1 1s-.447 1-1 1m0 6h-4c-.553 0-1-.447-1-1s.447-1 1-1h4c.553 0 1 .447 1 1s-.447 1-1 1m-7 2c0 .553-.447 1-1 1s-1-.447-1-1V5c0-.553.447-1 1-1s1 .447 1 1zm-5-8h-2c-.553 0-1-.447-1-1s.447-1 1-1h2c.553 0 1 .447 1 1s-.447 1-1 1M26 1H6c-.553 0-1 .447-1 1v24c0 .553.447 1 1 1h1v1c0 .553.447 1 1 1s1-.447 1-1v-1h14v1c0 .553.447 1 1 1s1-.447 1-1v-1h1c.553 0 1-.447 1-1V2c0-.553-.447-1-1-1"/></svg>

<?xml version="1.0" encoding="UTF-8"?>
<svg width="32px" height="32px" viewBox="0 0 32 32" version="1.1" fill="#44739e" xmlns="http://www.w3.org/2000/svg" xmlns:xlink="http://www.w3.org/1999/xlink">
            <path d="M24,9 L20,9 C19.447,9 19,8.553 19,8 C19,7.447 19.447,7 20,7 L24,7 C24.553,7 25,7.447 25,8 C25,8.553 24.553,9 24,9 Z M24,15 L20,15 C19.447,15 19,14.553 19,14 C19,13.447 19.447,13 20,13 L24,13 C24.553,13 25,13.447 25,14 C25,14.553 24.553,15 24,15 Z M24,21 L20,21 C19.447,21 19,20.553 19,20 C19,19.447 19.447,19 20,19 L24,19 C24.553,19 25,19.447 25,20 C25,20.553 24.553,21 24,21 Z M17,23 C17,23.553 16.553,24 16,24 C15.447,24 15,23.553 15,23 L15,5 C15,4.447 15.447,4 16,4 C16.553,4 17,4.447 17,5 L17,23 Z M12,15 L10,15 C9.447,15 9,14.553 9,14 C9,13.447 9.447,13 10,13 L12,13 C12.553,13 13,13.447 13,14 C13,14.553 12.553,15 12,15 Z M26,1 L6,1 C5.447,1 5,1.447 5,2 L5,26 C5,26.553 5.447,27 6,27 L7,27 L7,28 C7,28.553 7.447,29 8,29 C8.553,29 9,28.553 9,28 L9,27 L23,27 L23,28 C23,28.553 23.447,29 24,29 C24.553,29 25,28.553 25,28 L25,27 L26,27 C26.553,27 27,26.553 27,26 L27,2 C27,1.447 26.553,1 26,1 Z"></path>
</svg>
